icon/cg/trophy.svg

<svg viewBox="0 0 24 24" fill="none" xmlns="http://www.w3.org/2000/svg" height="1em" width="1em">
  <path fill-rule="evenodd" clip-rule="evenodd" d="M13 15.9C15.2822 15.4367 17 13.419 17 11V4H7V11C7 13.419 8.71776 15.4367 11 15.9V18H9V20H15V18H13V15.9ZM9 6H15V11C15 12.6569 13.6569 14 12 14C10.3431 14 9 12.6569 9 11V6Z" fill="currentColor"/>
  <path d="M18 6H20V11H18V6Z" fill="currentColor"/>
  <path d="M6 6H4V11H6V6Z" fill="currentColor"/>
</svg>

<svg width="24" height="24" fill="none" xmlns="http://www.w3.org/2000/svg"><path fill-rule="evenodd" clip-rule="evenodd" d="M13 15.9a5.002 5.002 0 0 0 4-4.9V4H7v7a5.002 5.002 0 0 0 4 4.9V18H9v2h6v-2h-2v-2.1ZM9 6h6v5a3 3 0 1 1-6 0V6Z" fill="currentColor"/><path d="M18 6h2v5h-2V6ZM6 6H4v5h2V6Z" fill="currentColor"/></svg>
